docs/src/static/using_bpk_icon.svg

<svg height="90" viewBox="0 0 90 90" width="90" xmlns="http://www.w3.org/2000/svg" xmlns:xlink="http://www.w3.org/1999/xlink"><mask id="a" fill="#fff"/><path d="m0 69.1637924h87.1740793v-3.5097656h-87.1740793zm5.93696354-44.145832 14.36373606 8.8118515 16.7127239-4.4106055-17.9197606-23.44640425 2.4294571-2.35622266 33.3414287 21.09369141 7.303755-1.9280313c7.6492988-2.021625 13.06913-3.4512695 13.3294713-3.519125.583401-.1544296 1.1845526-.2316445 1.7892543-.2316445 3.0282419 0 5.1796072 1.856666 5.4363984 2.8136621.3372602 1.2471367-1.4425272 4.8657051-4.9654174 5.7969629l-47.9844399 12.7100313c-.1159702.0304179-.3869618.0818945-.9052775.0818945-4.0684235 0-13.6702816-3.0300977-17.6795366-4.4187949-2.52294326-3.5682617-4.10984143-5.8577989-5.10623834-7.3248809l-1.49577873-2.3690918zm2.66731429 13.4704804.32424319.4574395.53133279.1883574c.55618359.1965469 13.66081469 4.8095488 19.40725569 4.8095488.7147551 0 1.3099898-.0666855 1.823572-.2012265l47.9844399-12.7112012c5.1287223-1.3547695 8.3983716-6.6825938 7.4753436-10.0905762-.7005546-2.6077558-4.2885302-5.420248-8.8658025-5.420248-.9123776 0-1.8223887.1181621-2.6933484.3474668-.2485075.0655156-5.6778056 1.4975-13.3401215 3.5226347l-5.7914092 1.5290879-32.4645521-20.53563865c-1.0697658-.61537891-2.5974954-.50072656-3.6282101.4118125l-3.1382953 3.04413672c-1.0650323.93944727-1.2342541 2.56563867-.3727613 3.71918164l15.1447598 19.81613669-10.1320076 2.6744414-13.46555875-8.2608183c-1.07213255-.6808946-2.66968104-.5112559-3.58087536.3673554l-2.10758064 2.0344942c-.91711117.8961601-1.11118373 2.3726015-.46624749 3.4688183.64966972 1.3500899 2.57974498 4.0795176 7.35582327 10.8287969z" fill="#fff" mask="url(#a)" transform="translate(1 10)"/></svg>

<?xml version="1.0" encoding="UTF-8"?>
<svg width="90px" height="90px" viewBox="0 0 90 90" version="1.1" xmlns="http://www.w3.org/2000/svg" xmlns:xlink="http://www.w3.org/1999/xlink">
    <!-- Generator: Sketch 48.2 (47327) - http://www.bohemiancoding.com/sketch -->
    <title>using_bpk_icon</title>
    <desc>Created with Sketch.</desc>
    <defs>
        <polygon id="path-1" points="0 0.000350976562 87.1740793 0.000350976562 87.1740793 69.1637924 0 69.1637924"></polygon>
    </defs>
    <g id="Page-1" stroke="none" stroke-width="1" fill="none" fill-rule="evenodd">
        <g id="using_bpk_icon">
            <g transform="translate(1.000000, 10.000000)">
                <mask id="mask-2" fill="white">
                    <use xlink:href="#path-1"></use>
                </mask>
                <g id="path-1"></g>
                <path d="M0,69.1637924 L87.1740793,69.1637924 L87.1740793,65.6540268 L0,65.6540268 L0,69.1637924 Z M5.93696354,25.0179604 L20.3006996,33.8298119 L37.0134235,29.4192064 L19.0936629,5.97280215 L21.52312,3.61657949 L54.8645487,24.7102709 L62.1683037,22.7822396 C69.8176025,20.7606146 75.2374337,19.3309701 75.497775,19.2631146 C76.081176,19.108685 76.6823276,19.0314701 77.2870293,19.0314701 C80.3152712,19.0314701 82.4666365,20.8881361 82.7234277,21.8451322 C83.0606879,23.0922689 81.2809005,26.7108373 77.7580103,27.6420951 L29.7735704,40.3521264 C29.6576002,40.3825443 29.3866086,40.4340209 28.8682929,40.4340209 C24.7998694,40.4340209 15.1980113,37.4039232 11.1887563,36.015226 C8.66581304,32.4469643 7.07891487,30.1574271 6.08251796,28.6903451 L4.58673923,26.3212533 L5.93696354,25.0179604 Z M8.60427783,38.4884408 L8.92852102,38.9458803 L9.45985381,39.1342377 C10.0160374,39.3307846 23.1206685,43.9437865 28.8671095,43.9437865 C29.5818646,43.9437865 30.1770993,43.877101 30.6906815,43.74256 L78.6751214,31.0313588 C83.8038437,29.6765893 87.073493,24.348765 86.150465,20.9407826 C85.4499104,18.3330268 81.8619348,15.5205346 77.2846625,15.5205346 C76.3722849,15.5205346 75.4622738,15.6386967 74.5913141,15.8680014 C74.3428066,15.933517 68.9135085,17.3655014 61.2511926,19.3906361 L55.4597834,20.919724 L22.9952313,0.384085352 C21.9254655,-0.231293555 20.3977359,-0.116641211 19.3670212,0.795897852 L16.2287259,3.84003457 C15.1636936,4.77948184 14.9944718,6.40567324 15.8559646,7.55921621 L31.0007244,27.3753529 L20.8687168,30.0497943 L7.40315805,21.788976 C6.3310255,21.1080814 4.73347701,21.2777201 3.82228269,22.1563314 L1.71470205,24.1908256 C0.797590877,25.0869857 0.603518319,26.5634271 1.24845456,27.6596439 C1.89812428,29.0097338 3.82819954,31.7391615 8.60427783,38.4884408 Z" id="Fill-1" fill="#FFFFFF" fill-rule="nonzero" mask="url(#mask-2)"></path>
            </g>
        </g>
    </g>
</svg>
